material/.icons/material/home-analytics.svg

<svg xmlns="http://www.w3.org/2000/svg" viewBox="0 0 24 24"><path d="M12 3L2 12h3v8h14v-8h3M9 18H7v-6h2m4 6h-2v-8h2m4 8h-2v-4h2"/></svg>

<?xml version="1.0" encoding="UTF-8"?><!DOCTYPE svg PUBLIC "-//W3C//DTD SVG 1.1//EN" "http://www.w3.org/Graphics/SVG/1.1/DTD/svg11.dtd"><svg xmlns="http://www.w3.org/2000/svg" xmlns:xlink="http://www.w3.org/1999/xlink" version="1.1" id="mdi-home-analytics" width="24" height="24" viewBox="0 0 24 24"><path d="M12,3L2,12H5V20H19V12H22M9,18H7V12H9M13,18H11V10H13M17,18H15V14H17" /></svg>
